Gems/Atom/ColorGrading/Tools/ColorGrading/Resources/TestData/Photoshop/Log2-48nits/o_invShaped/test_clt_32_LUT.3dl
0 33 66 99 132 165 198 231 264 297 330 363 396 429 462 495 528 561 594 627 660 693 726 759 792 825 858 891 924 957 990 1023 
0 0 0
0 0 0
0 0 0
0 0 0
0 0 28
0 0 152
0 0 280
0 0 408
0 0 537
0 0 667
0 0 797
0 0 928
0 0 1084
0 0 1291
0 0 1472
0 0 1634
361 0 1771
1145 0 1881
1561 0 2006
1561 0 2154
432 987 2341
1228 621 2470
1732 0 2503
1732 0 2503
1732 0 2503
1732 0 2503
1732 0 2503
1732 0 2503
1732 0 2503
1732 0 2503
1732 0 2503
1732 0 2503
0 0 0
0 0 0
0 0 0
0 0 0
0 0 54
0 0 173
0 0 295
0 0 419
0 0 545
0 0 673
0 0 802
0 0 932
0 0 1087
0 0 1293
0 0 1473
0 0 1635
370 0 1772
1144 0 1882
1559 0 2006
1558 0 2154
428 992 2341
1232 621 2470
1732 0 2503
1732 0 2503
1732 0 2503
1732 0 2503
1732 0 2503
1732 0 2503
1732 0 2503
1732 0 2503
1732 0 2503
1732 0 2503
0 0 0
0 0 0
0 0 0
0 0 0
0 0 87
0 0 198
0 0 315
0 0 434
0 0 557
0 0 682
0 0 809
0 0 937
0 0 1091
0 0 1295
0 0 1474
0 0 1635
381 0 1773
1143 0 1883
1556 0 2007
1554 0 2155
423 998 2341
1238 621 2470
1732 0 2503
1732 0 2503
1732 0 2503
1732 0 2503
1732 0 2503
1732 0 2503
1732 0 2503
1732 0 2503
1732 0 2503
1732 0 2503
0 0 0
0 0 0
0 0 0
0 0 31
0 0 127
0 0 230
0 0 340
0 0 454
0 0 572
0 0 693
0 0 817
0 0 943
0 0 1095
0 0 1298
0 0 1476
0 0 1636
395 0 1774
1142 0 1883
1552 0 2008
1548 0 2156
416 1005 2342
1246 621 2470
1732 0 2503
1732 0 2503
1732 0 2503
1732 0 2503
1732 0 2503
1732 0 2503
1732 0 2503
1732 0 2503
1732 0 2503
1732 0 2503
0 0 0
0 0 0
0 0 0
0 0 31
0 0 176
0 0 270
0 0 371
0 0 478
0 0 591
0 0 708
0 0 828
0 0 952
0 0 1101
0 0 1302
0 0 1479
0 0 1637
414 0 1775
1140 0 1884
1547 0 2010
1540 58 2158
407 1015 2342
1257 621 2470
1732 0 2503
1732 0 2503
1732 0 2503
1732 0 2503
1732 0 2503
1732 0 2503
1732 0 2503
1732 0 2503
1732 0 2503
1732 0 2503
0 0 0
0 0 0
0 0 0
0 0 31
0 7 176
0 63 318
0 63 410
0 63 509
0 63 615
0 63 727
0 63 843
0 63 963
0 103 1109
0 30 1307
0 30 1482
0 3 1639
438 0 1777
1137 0 1886
1539 0 2011
1530 197 2160
394 1028 2343
1270 621 2470
1732 30 2504
1732 30 2504
1732 30 2504
1732 30 2504
1732 30 2504
1732 30 2504
1732 30 2504
1732 30 2504
1732 30 2504
1732 30 2504
0 4 0
0 23 0
0 47 0
0 77 31
0 114 176
0 159 318
0 214 457
0 214 548
0 214 646
0 214 751
0 214 862
0 214 977
0 243 1120
0 163 1314
0 163 1487
0 142 1641
468 0 1779
1134 0 1888
1530 32 2014
1515 333 2163
376 1045 2344
1287 621 2470
1732 163 2504
1732 163 2504
1732 163 2504
1732 163 2504
1732 163 2504
1732 163 2504
1732 163 2504
1732 163 2504
1732 163 2504
1732 163 2504
0 144 0
0 157 0
0 175 0
0 198 31
0 227 176
0 262 318
0 306 457
0 359 595
0 359 684
0 359 782
0 359 886
0 359 996
0 380 1134
0 295 1323
0 295 1494
0 280 1644
506 122 1783
1129 0 1891
1516 164 2017
1495 469 2167
352 1066 2345
1309 621 2470
1732 295 2505
1732 295 2505
1732 295 2505
1732 295 2505
1732 295 2505
1732 295 2505
1732 295 2505
1732 295 2505
1732 295 2505
1732 295 2505
0 281 0
0 291 0
0 304 0
0 322 31
0 344 176
0 371 318
0 406 457
0 449 595
0 501 730
0 501 819
0 501 916
0 501 1020
0 516 1151
0 426 1335
0 426 1502
0 415 1648
552 265 1787
1123 111 1894
1498 296 2021
1467 603 2172
317 1093 2347
1348 639 2470
1732 426 2506
1732 426 2506
1732 426 2506
1732 426 2506
1732 426 2506
1732 426 2506
1732 426 2506
1732 426 2506
1732 426 2506
1732 426 2506
0 417 0
0 424 0
0 434 0
0 447 31
0 464 176
0 486 318
0 513 457
0 547 595
0 589 730
0 640 865
0 640 954
0 640 1050
0 651 1174
0 570 1350
0 559 1512
0 550 1653
556 441 1791
1115 244 1898
1471 428 2027
1426 737 2178
265 1128 2349
1396 662 2470
1732 559 2507
1732 559 2507
1732 559 2507
1732 559 2507
1732 559 2507
1732 559 2507
1732 559 2507
1732 559 2507
1732 559 2507
1732 559 2507
0 552 0
0 557 0
0 565 0
0 575 31
0 587 176
0 604 318
0 625 457
0 652 595
0 686 730
0 727 865
0 777 1000
0 777 1088
0 786 1203
0 726 1370
0 691 1526
0 685 1662
556 606 1796
1132 422 1904
1434 560 2035
1365 871 2187
186 1169 2352
1454 691 2470
1732 691 2509
1732 691 2509
1732 691 2509
1732 691 2509
1732 691 2509
1732 691 2509
1732 691 2509
1732 691 2509
1732 691 2509
1732 691 2509
0 686 0
0 690 0
0 696 0
0 703 31
0 713 176
0 726 318
0 742 457
0 763 595
0 789 730
0 823 865
0 864 1000
0 913 1133
0 920 1239
0 876 1395
0 823 1544
0 818 1675
556 761 1803
1160 593 1912
1378 692 2045
1267 1004 2199
0 1212 2357
1520 728 2470
1732 823 2511
1732 823 2511
1732 823 2511
1732 823 2511
1732 823 2511
1732 823 2511
1732 823 2511
1732 823 2511
1732 823 2511
1732 823 2511
0 857 100
0 857 131
0 861 202
0 866 282
0 873 371
0 882 468
0 894 573
0 909 683
0 928 797
0 953 916
0 984 1038
0 1023 1162
0 1061 1287
0 1030 1430
0 984 1569
0 971 1697
566 941 1817
1178 799 1926
1302 849 2057
1119 1137 2212
0 1255 2365
1585 801 2470
1738 957 2513
1738 957 2513
1738 957 2513
1738 957 2513
1738 957 2513
1738 957 2513
1738 957 2513
1738 957 2513
1738 957 2513
1738 957 2513
0 1184 1027
0 1184 1031
0 1184 1036
0 1184 1043
0 1184 1052
0 1184 1064
0 1184 1080
0 1184 1099
0 1184 1125
0 1190 1168
0 1209 1242
0 1232 1325
0 1257 1416
0 1237 1493
0 1209 1617
0 1222 1740
636 1187 1854
1040 1131 1961
1243 1131 2080
1031 1271 2224
472 1312 2372
1588 1032 2472
1765 1144 2512
1765 1144 2512
1765 1144 2512
1765 1144 2512
1765 1144 2512
1765 1144 2512
1765 1144 2512
1765 1144 2512
1765 1144 2512
1765 1144 2512
0 1421 1377
0 1421 1379
0 1421 1382
0 1421 1385
0 1421 1389
0 1421 1395
0 1421 1402
0 1421 1412
0 1421 1425
0 1421 1442
0 1421 1463
0 1421 1491
0 1432 1546
0 1418 1604
0 1399 1673
0 1412 1786
636 1404 1895
1048 1353 1999
1151 1350 2110
878 1405 2240
666 1388 2378
1601 1209 2473
1799 1314 2510
1799 1314 2510
1799 1314 2510
1799 1314 2510
1799 1314 2510
1799 1314 2510
1799 1314 2510
1799 1314 2510
1799 1314 2510
1799 1314 2510
901 1580 1648
901 1579 1649
901 1579 1650
901 1579 1652
901 1578 1655
901 1577 1658
901 1576 1662
901 1574 1668
901 1572 1675
901 1569 1685
901 1567 1698
901 1567 1714
886 1567 1736
886 1577 1788
886 1569 1838
890 1552 1888
807 1557 1969
921 1536 2067
942 1537 2170
810 1524 2268
1125 1501 2382
1680 1435 2473
1845 1472 2509
1845 1472 2509
1845 1472 2509
1845 1472 2509
1845 1472 2509
1845 1472 2509
1845 1472 2509
1845 1472 2509
1845 1472 2509
1845 1472 2509
1449 1705 1856
1448 1705 1856
1447 1705 1857
1446 1705 1859
1444 1705 1860
1441 1705 1862
1438 1705 1865
1433 1705 1868
1427 1705 1873
1426 1703 1880
1426 1700 1888
1426 1696 1899
1423 1691 1913
1400 1685 1931
1400 1696 1976
1370 1702 2022
1371 1685 2062
1192 1672 2128
1127 1678 2221
1173 1647 2295
1519 1631 2386
1775 1634 2475
1894 1629 2511
1894 1629 2511
1894 1629 2511
1894 1629 2511
1894 1629 2511
1894 1629 2511
1894 1629 2511
1894 1629 2511
1894 1629 2511
1894 1629 2511
1785 1818 1978
1786 1818 1978
1786 1818 1979
1786 1818 1980
1786 1818 1981
1787 1818 1982
1788 1818 1983
1789 1818 1986
1790 1818 1988
1792 1818 1992
1788 1818 1998
1781 1818 2007
1772 1818 2018
1752 1824 2037
1733 1818 2052
1727 1802 2080
1685 1816 2123
1705 1809 2166
1657 1793 2234
1664 1793 2304
1754 1797 2389
1874 1790 2475
1964 1800 2514
1964 1800 2514
1964 1800 2514
1964 1800 2514
1964 1800 2514
1964 1800 2514
1964 1800 2514
1964 1800 2514
1964 1800 2514
1964 1800 2514
1958 1958 2028
1957 1958 2029
1957 1958 2029
1957 1958 2030
1956 1958 2031
1956 1958 2031
1956 1958 2033
1955 1958 2035
1954 1958 2037
1953 1958 2041
1951 1958 2045
1948 1958 2051
1946 1958 2058
1941 1962 2068
1935 1968 2081
1927 1969 2115
1913 1965 2153
1905 1963 2189
1920 1969 2243
1881 1969 2320
1929 1954 2391
2032 1964 2481
2093 1969 2517
2093 1969 2517
2093 1969 2517
2093 1969 2517
2093 1969 2517
2093 1969 2517
2093 1969 2517
2093 1969 2517
2093 1969 2517
2093 1969 2517
2119 2119 2068
2119 2119 2068
2119 2119 2068
2119 2120 2069
2119 2120 2069
2119 2120 2071
2119 2120 2072
2119 2121 2073
2119 2122 2076
2119 2122 2079
2119 2124 2083
2119 2125 2088
2119 2127 2095
2119 2127 2101
2119 2127 2110
2115 2131 2133
2108 2133 2164
2103 2131 2206
2110 2135 2256
2119 2135 2316
2148 2131 2395
2212 2147 2485
2261 2159 2524
2261 2159 2524
2261 2159 2524
2261 2159 2524
2261 2159 2524
2261 2159 2524
2261 2159 2524
2261 2159 2524
2261 2159 2524
2261 2159 2524
2370 2355 2124
2370 2355 2124
2370 2355 2124
2370 2355 2125
2369 2356 2125
2369 2356 2126
2369 2356 2126
2369 2356 2127
2369 2357 2129
2368 2357 2131
2367 2358 2133
2368 2359 2137
2369 2360 2143
2370 2358 2146
2369 2356 2148
2368 2358 2163
2370 2358 2193
2369 2358 2226
2372 2355 2273
2383 2356 2337
2410 2367 2405
2467 2385 2498
2496 2391 2531
2496 2391 2531
2496 2391 2531
2496 2391 2531
2496 2391 2531
2496 2391 2531
2496 2391 2531
2496 2391 2531
2496 2391 2531
2496 2391 2531
2681 2655 1963
2681 2655 1963
2681 2655 1963
2681 2655 1963
2681 2654 1964
2681 2654 1965
2681 2654 1966
2681 2654 1968
2681 2654 1967
2681 2654 1965
2680 2653 1964
2680 2653 1961
2679 2652 1961
2678 2653 1968
2677 2654 1989
2676 2653 2013
2675 2649 2032
2677 2655 2124
2681 2656 2208
2687 2661 2306
2695 2667 2410
2715 2678 2527
2722 2684 2575
2722 2684 2575
2722 2684 2575
2722 2684 2575
2722 2684 2575
2722 2684 2575
2722 2684 2575
2722 2684 2575
2722 2684 2575
2722 2684 2575
2714 2771 2431
2714 2771 2431
2714 2771 2431
2714 2771 2431
2714 2771 2431
2714 2771 2431
2714 2771 2431
2714 2771 2431
2714 2771 2431
2714 2771 2431
2714 2771 2431
2714 2771 2431
2714 2771 2432
2715 2770 2435
2716 2768 2439
2714 2769 2444
2711 2771 2455
2709 2773 2484
2714 2773 2520
2714 2773 2553
2717 2777 2616
2722 2785 2694
2729 2789 2727
2729 2789 2727
2729 2789 2727
2729 2789 2727
2729 2789 2727
2729 2789 2727
2729 2789 2727
2729 2789 2727
2729 2789 2727
2729 2789 2727
2714 2771 2431
2714 2771 2431
2714 2771 2431
2714 2771 2431
2714 2771 2431
2714 2771 2431
2714 2771 2431
2714 2771 2431
2714 2771 2431
2714 2771 2431
2714 2771 2431
2714 2771 2431
2714 2771 2432
2715 2770 2435
2716 2768 2439
2714 2769 2444
2711 2771 2455
2709 2773 2484
2714 2773 2520
2714 2773 2553
2717 2777 2616
2722 2785 2694
2729 2789 2727
2729 2789 2727
2729 2789 2727
2729 2789 2727
2729 2789 2727
2729 2789 2727
2729 2789 2727
2729 2789 2727
2729 2789 2727
2729 2789 2727
2714 2771 2431
2714 2771 2431
2714 2771 2431
2714 2771 2431
2714 2771 2431
2714 2771 2431
2714 2771 2431
2714 2771 2431
2714 2771 2431
2714 2771 2431
2714 2771 2431
2714 2771 2431
2714 2771 2432
2715 2770 2435
2716 2768 2439
2714 2769 2444
2711 2771 2455
2709 2773 2484
2714 2773 2520
2714 2773 2553
2717 2777 2616
2722 2785 2694
2729 2789 2727
2729 2789 2727
2729 2789 2727
2729 2789 2727
2729 2789 2727
2729 2789 2727
2729 2789 2727
2729 2789 2727
2729 2789 2727
2729 2789 2727
2714 2771 2431
2714 2771 2431
2714 2771 2431
2714 2771 2431
2714 2771 2431
2714 2771 2431
2714 2771 2431
2714 2771 2431
2714 2771 2431
2714 2771 2431
2714 2771 2431
2714 2771 2431
2714 2771 2432
2715 2770 2435
2716 2768 2439
2714 2769 2444
2711 2771 2455
2709 2773 2484
2714 2773 2520
2714 2773 2553
2717 2777 2616
2722 2785 2694
2729 2789 2727
2729 2789 2727
2729 2789 2727
2729 2789 2727
2729 2789 2727
2729 2789 2727
2729 2789 2727
2729 2789 2727
2729 2789 2727
2729 2789 2727
2714 2771 2431
2714 2771 2431
2714 2771 2431
2714 2771 2431
2714 2771 2431
2714 2771 2431
2714 2771 2431
2714 2771 2431
2714 2771 2431
2714 2771 2431
2714 2771 2431
2714 2771 2431
2714 2771 2432
2715 2770 2435
2716 2768 2439
2714 2769 2444
2711 2771 2455
2709 2773 2484
2714 2773 2520
2714 2773 2553
2717 2777 2616
2722 2785 2694
2729 2789 2727
2729 2789 2727
2729 2789 2727
2729 2789 2727
2729 2789 2727
2729 2789 2727
2729 2789 2727
2729 2789 2727
2729 2789 2727
2729 2789 2727
2714 2771 2431
2714 2771 2431
2714 2771 2431
2714 2771 2431
2714 2771 2431
2714 2771 2431
2714 2771 2431
2714 2771 2431
2714 2771 2431
2714 2771 2431
2714 2771 2431
2714 2771 2431
2714 2771 2432
2715 2770 2435
2716 2768 2439
2714 2769 2444
2711 2771 2455
2709 2773 2484
2714 2773 2520
2714 2773 2553
2717 2777 2616
2722 2785 2694
2729 2789 2727
2729 2789 2727
2729 2789 2727
2729 2789 2727
2729 2789 2727
2729 2789 2727
2729 2789 2727
2729 2789 2727
2729 2789 2727
2729 2789 2727
2714 2771 2431
2714 2771 2431
2714 2771 2431
2714 2771 2431
