Gems/Atom/ColorGrading/Tools/ColorGrading/Resources/TestData/Photoshop/Log2-48nits/o_invShaped/test_hue-sat_32_LUT.3dl
0 33 66 99 132 165 198 231 264 297 330 363 396 429 462 495 528 561 594 627 660 693 726 759 792 825 858 891 924 957 990 1023 
0 0 0
97 163 0
201 318 0
312 466 0
427 609 0
545 750 0
667 888 0
792 1025 0
918 1160 0
1046 1295 0
1174 1429 0
1304 1563 0
1434 1696 0
1565 1828 0
1696 1961 0
1827 2094 0
1959 2226 0
2090 2358 0
2222 2491 0
2354 2623 0
2486 2755 0
2618 2887 0
2750 3019 0
2882 3152 0
3014 3284 0
3146 3416 0
3278 3548 0
3410 3680 0
3542 3812 0
3674 3944 0
3806 4076 0
3939 4095 0
163 0 97
163 42 0
318 300 0
419 466 0
512 609 0
613 750 0
719 888 0
832 1025 0
949 1160 0
1069 1295 0
1192 1429 0
1318 1563 0
1444 1696 0
1572 1828 0
1702 1961 0
1831 2094 0
1962 2226 0
2093 2358 0
2224 2491 0
2355 2623 0
2487 2755 0
2619 2887 0
2750 3019 0
2883 3152 0
3014 3284 0
3146 3416 0
3278 3548 0
3410 3680 0
3542 3812 0
3674 3944 0
3806 4076 0
3939 4095 0
318 0 201
318 0 13
318 93 0
466 388 0
606 609 0
689 750 0
781 888 0
881 1025 0
987 1160 0
1099 1295 0
1215 1429 0
1335 1563 0
1457 1696 0
1582 1828 0
1709 1961 0
1837 2094 0
1966 2226 0
2096 2358 0
2226 2491 0
2357 2623 0
2488 2755 0
2620 2887 0
2751 3019 0
2883 3152 0
3014 3284 0
3147 3416 0
3279 3548 0
3410 3680 0
3543 3812 0
3674 3944 0
3806 4076 0
3939 4095 0
466 0 312
466 0 171
466 0 0
466 154 0
609 485 0
750 723 0
852 888 0
939 1025 0
1033 1160 0
1135 1295 0
1244 1429 0
1357 1563 0
1475 1696 0
1596 1828 0
1719 1961 0
1845 2094 0
1972 2226 0
2100 2358 0
2230 2491 0
2359 2623 0
2490 2755 0
2621 2887 0
2752 3019 0
2884 3152 0
3015 3284 0
3147 3416 0
3279 3548 0
3411 3680 0
3543 3812 0
3674 3944 0
3806 4076 0
3939 4095 0
609 0 427
609 0 322
609 0 127
609 0 0
609 224 0
750 587 0
888 838 0
1006 1025 0
1089 1160 0
1181 1295 0
1280 1429 0
1385 1563 0
1496 1696 0
1612 1828 0
1732 1961 0
1855 2094 0
1979 2226 0
2106 2358 0
2234 2491 0
2363 2623 0
2493 2755 0
2623 2887 0
2754 3019 0
2885 3152 0
3016 3284 0
3147 3416 0
3279 3548 0
3411 3680 0
3543 3812 0
3675 3944 0
3807 4076 0
3939 4095 0
750 0 545
750 0 467
750 0 334
750 0 59
750 0 0
750 304 0
888 697 0
1025 957 0
1154 1160 0
1234 1295 0
1323 1429 0
1421 1563 0
1524 1696 0
1634 1828 0
1749 1961 0
1867 2094 0
1989 2226 0
2113 2358 0
2239 2491 0
2367 2623 0
2496 2755 0
2625 2887 0
2755 3019 0
2886 3152 0
3017 3284 0
3148 3416 0
3280 3548 0
3411 3680 0
3543 3812 0
3675 3944 0
3807 4076 0
3939 4095 0
888 0 667
888 0 608
888 0 515
888 0 350
888 0 0
888 0 0
888 392 0
1025 811 0
1160 1079 0
1295 1292 0
1376 1429 0
1463 1563 0
1559 1696 0
1661 1828 0
1770 1961 0
1884 2094 0
2002 2226 0
2123 2358 0
2247 2491 0
2372 2623 0
2500 2755 0
2628 2887 0
2758 3019 0
2888 3152 0
3018 3284 0
3149 3416 0
3280 3548 0
3412 3680 0
3544 3812 0
3675 3944 0
3807 4076 0
3939 4095 0
1025 0 792
1025 0 748
1025 0 681
1025 0 573
1025 0 371
1025 0 0
1025 0 0
1025 488 0
1160 929 0
1295 1204 0
1429 1419 0
1515 1563 0
1601 1696 0
1696 1828 0
1797 1961 0
1905 2094 0
2018 2226 0
2136 2358 0
2256 2491 0
2380 2623 0
2505 2755 0
2633 2887 0
2761 3019 0
2890 3152 0
3020 3284 0
3151 3416 0
3281 3548 0
3413 3680 0
3544 3812 0
3676 3944 0
3808 4076 0
3939 4095 0
1160 0 918
1160 0 885
1160 0 836
1160 0 762
1160 0 640
1160 0 397
1160 0 0
1160 0 0
1160 592 0
1295 1051 0
1429 1330 0
1563 1548 0
1653 1696 0
1738 1828 0
1831 1961 0
1932 2094 0
2039 2226 0
2152 2358 0
2269 2491 0
2390 2623 0
2513 2755 0
2638 2887 0
2765 3019 0
2893 3152 0
3022 3284 0
3152 3416 0
3283 3548 0
3414 3680 0
3545 3812 0
3676 3944 0
3808 4076 0
3940 4095 0
1295 0 1046
1295 0 1021
1295 0 985
1295 0 934
1295 0 853
1295 0 717
1295 0 431
1295 0 0
1295 0 0
1295 702 0
1429 1174 0
1563 1458 0
1696 1677 0
1789 1828 0
1873 1961 0
1966 2094 0
2066 2226 0
2173 2358 0
2285 2491 0
2402 2623 0
2523 2755 0
2646 2887 0
2771 3019 0
2898 3152 0
3025 3284 0
3155 3416 0
3285 3548 0
3415 3680 0
3546 3812 0
3677 3944 0
3808 4076 0
3940 4095 0
1429 0 1174
1429 0 1156
1429 0 1130
1429 0 1092
1429 0 1037
1429 0 951
1429 0 803
1429 0 471
1429 0 0
1429 0 0
1429 816 0
1563 1301 0
1696 1587 0
1828 1807 0
1923 1961 0
2007 2094 0
2100 2226 0
2200 2358 0
2306 2491 0
2419 2623 0
2535 2755 0
2655 2887 0
2778 3019 0
2903 3152 0
3030 3284 0
3158 3416 0
3287 3548 0
3417 3680 0
3547 3812 0
3678 3944 0
3809 4076 0
3941 4095 0
1563 0 1304
1563 0 1290
1563 0 1271
1563 0 1244
1563 0 1205
1563 0 1148
1563 0 1057
1563 0 897
1563 0 523
1563 0 0
1563 0 0
1563 934 0
1696 1427 0
1828 1716 0
1961 1938 0
2058 2094 0
2141 2226 0
2233 2358 0
2333 2491 0
2440 2623 0
2552 2755 0
2668 2887 0
2788 3019 0
2911 3152 0
3035 3284 0
3162 3416 0
3290 3548 0
3419 3680 0
3549 3812 0
3679 3944 0
3810 4076 0
3941 4095 0
1696 0 1434
1696 0 1424
1696 0 1410
1696 0 1390
1696 0 1362
1696 0 1322
1696 0 1262
1696 0 1167
1696 0 998
1696 0 580
1696 0 0
1696 0 0
1696 1056 0
1828 1557 0
1961 1847 0
2094 2069 0
2191 2226 0
2275 2358 0
2367 2491 0
2466 2623 0
2573 2755 0
2684 2887 0
2800 3019 0
2920 3152 0
3043 3284 0
3168 3416 0
3294 3548 0
3422 3680 0
3552 3812 0
3681 3944 0
3812 4076 0
3942 4095 0
1828 0 1565
1828 0 1557
1828 0 1547
1828 0 1532
1828 0 1512
1828 0 1484
1828 0 1442
1828 0 1381
1828 0 1283
1828 0 1106
1828 0 650
1828 0 0
1828 0 0
1828 1180 0
1961 1686 0
2094 1977 0
2226 2200 0
2325 2358 0
2408 2491 0
2500 2623 0
2599 2755 0
2705 2887 0
2816 3019 0
2933 3152 0
3052 3284 0
3175 3416 0
3300 3548 0
3427 3680 0
3554 3812 0
3683 3944 0
3813 4076 0
3944 4095 0
1961 0 1696
1961 0 1690
1961 0 1682
1961 0 1672
1961 0 1657
1961 0 1636
1961 0 1607
1961 0 1565
1961 0 1503
1961 0 1402
1961 0 1220
1961 0 726
1961 0 0
1961 0 0
1961 1306 0
2094 1816 0
2226 2108 0
2358 2332 0
2458 2491 0
2541 2623 0
2632 2755 0
2732 2887 0
2837 3019 0
2949 3152 0
3065 3284 0
3184 3416 0
3307 3548 0
3432 3680 0
3559 3812 0
3687 3944 0
3816 4076 0
3946 4095 0
2094 0 1827
2094 0 1823
2094 0 1817
2094 0 1809
2094 0 1798
2094 0 1783
2094 0 1763
2094 0 1733
2094 0 1691
2094 0 1626
2094 0 1524
2094 0 1336
2094 0 814
2094 0 0
2094 0 0
2094 1433 0
2226 1946 0
2358 2239 0
2491 2463 0
2590 2623 0
2673 2755 0
2765 2887 0
2864 3019 0
2970 3152 0
3081 3284 0
3197 3416 0
3317 3548 0
3440 3680 0
3564 3812 0
3691 3944 0
3819 4076 0
3948 4095 0
2226 0 1959
2226 0 1956
2226 0 1951
2226 0 1945
2226 0 1937
2226 0 1926
2226 0 1911
2226 0 1890
2226 0 1860
2226 0 1817
2226 0 1753
2226 0 1648
2226 0 1457
2226 0 907
2226 0 0
2226 0 0
2226 1562 0
2358 2078 0
2491 2371 0
2623 2595 0
2723 2755 0
2806 2887 0
2897 3019 0
2996 3152 0
3102 3284 0
3213 3416 0
3329 3548 0
3449 3680 0
3572 3812 0
3696 3944 0
3823 4076 0
3951 4095 0
2358 0 2090
2358 0 2088
2358 0 2085
2358 0 2080
2358 0 2074
2358 0 2066
2358 0 2055
2358 0 2040
2358 0 2019
2358 0 1989
2358 0 1946
2358 0 1880
2358 0 1775
2358 0 1580
2358 0 1009
2358 0 0
2358 0 0
2358 1692 0
2491 2209 0
2623 2503 0
2755 2727 0
2856 2887 0
2938 3019 0
3030 3152 0
3128 3284 0
3234 3416 0
3346 3548 0
3462 3680 0
3581 3812 0
3704 3944 0
3828 4076 0
3955 4095 0
2491 0 2222
2491 0 2220
2491 0 2218
2491 0 2215
2491 0 2210
2491 0 2204
2491 0 2196
2491 0 2185
2491 0 2170
2491 0 2149
2491 0 2119
2491 0 2075
2491 0 2009
2491 0 1903
2491 0 1706
2491 0 1120
2491 0 0
2491 0 0
2491 1822 0
2623 2340 0
2755 2635 0
2887 2859 0
2988 3019 0
3071 3152 0
3162 3284 0
3261 3416 0
3367 3548 0
3478 3680 0
3594 3812 0
3713 3944 0
3836 4076 0
3961 4095 0
2623 0 2354
2623 0 2352
2623 0 2351
2623 0 2348
2623 0 2345
2623 0 2341
2623 0 2335
2623 0 2327
2623 0 2315
2623 0 2300
2623 0 2278
2623 0 2248
2623 0 2205
2623 0 2138
2623 0 2032
2623 0 1833
2623 0 1232
2623 0 0
2623 0 0
2623 1952 0
2755 2473 0
2887 2767 0
3019 2991 0
3120 3152 0
3203 3284 0
3294 3416 0
3393 3548 0
3499 3680 0
3610 3812 0
3726 3944 0
3846 4076 0
3968 4095 0
2755 0 2486
2755 0 2485
2755 0 2484
2755 0 2482
2755 0 2479
2755 0 2476
2755 0 2472
2755 0 2466
2755 0 2457
2755 0 2446
2755 0 2431
2755 0 2409
2755 0 2379
2755 0 2335
2755 0 2269
2755 0 2162
2755 0 1962
2755 0 1353
2755 0 0
2755 0 0
2755 2083 0
2887 2604 0
3019 2898 0
3152 3123 0
3252 3284 0
3335 3416 0
3426 3548 0
3525 3680 0
3631 3812 0
3742 3944 0
3858 4076 0
3978 4095 0
2887 0 2618
2887 0 2617
2887 0 2616
2887 0 2615
2887 0 2613
2887 0 2611
2887 0 2607
2887 0 2603
2887 0 2597
2887 0 2589
2887 0 2577
2887 0 2562
2887 0 2541
2887 0 2510
2887 0 2466
2887 0 2400
2887 0 2292
2887 0 2091
2887 0 1472
2887 0 0
2887 0 0
2887 2215 0
3019 2735 0
3152 3031 0
3284 3254 0
3385 3416 0
3467 3548 0
3558 3680 0
3657 3812 0
3763 3944 0
3874 4076 0
3990 4095 0
3019 0 2750
3019 0 2749
3019 0 2748
3019 0 2747
3019 0 2746
3019 0 2744
3019 0 2742
3019 0 2738
3019 0 2734
3019 0 2728
3019 0 2720
3019 0 2708
3019 0 2693
3019 0 2672
3019 0 2641
3019 0 2597
3019 0 2530
3019 0 2422
3019 0 2220
3019 0 1594
3019 0 0
3019 0 0
3019 2346 0
3152 2868 0
3284 3162 0
3416 3387 0
3516 3548 0
3599 3680 0
3691 3812 0
3790 3944 0
3895 4076 0
4007 4095 0
3152 0 2882
3152 0 2881
3152 0 2881
3152 0 2880
3152 0 2879
3152 0 2878
3152 0 2876
3152 0 2873
3152 0 2870
3152 0 2866
3152 0 2860
3152 0 2851
3152 0 2840
3152 0 2825
3152 0 2803
3152 0 2773
3152 0 2729
3152 0 2662
3152 0 2554
3152 0 2352
3152 0 1720
3152 0 0
3152 0 0
3152 2478 0
3284 2999 0
3416 3294 0
3548 3519 0
3649 3680 0
3732 3812 0
3823 3944 0
3922 4076 0
4027 4095 0
3284 0 3014
3284 0 3014
3284 0 3013
3284 0 3012
3284 0 3012
3284 0 3011
3284 0 3009
3284 0 3008
3284 0 3005
3284 0 3002
3284 0 2997
3284 0 2991
3284 0 2983
3284 0 2972
3284 0 2956
3284 0 2935
3284 0 2904
3284 0 2860
3284 0 2793
3284 0 2684
3284 0 2481
3284 0 1844
3284 0 0
3284 0 0
3284 2609 0
3416 3132 0
3548 3426 0
3680 3651 0
3781 3812 0
3864 3944 0
3955 4076 0
4054 4095 0
3416 0 3146
3416 0 3146
3416 0 3145
3416 0 3145
3416 0 3144
3416 0 3144
3416 0 3143
3416 0 3141
3416 0 3139
3416 0 3137
3416 0 3134
3416 0 3129
3416 0 3123
3416 0 3115
3416 0 3104
3416 0 3088
3416 0 3067
3416 0 3036
3416 0 2992
3416 0 2925
3416 0 2816
3416 0 2613
3416 0 1977
3416 0 0
3416 0 0
3416 2741 0
3548 3264 0
3680 3558 0
3812 3783 0
3913 3944 0
3996 4076 0
4087 4095 0
3548 0 3278
3548 0 3278
3548 0 3278
3548 0 3277
3548 0 3277
3548 0 3276
3548 0 3276
3548 0 3275
3548 0 3273
3548 0 3271
3548 0 3269
3548 0 3266
3548 0 3261
3548 0 3255
3548 0 3247
3548 0 3236
3548 0 3220
3548 0 3198
3548 0 3168
3548 0 3124
3548 0 3056
3548 0 2948
3548 0 2745
3548 0 2104
3548 0 0
3548 0 0
3548 2873 0
3680 3396 0
3812 3691 0
3944 3915 0
4045 4076 0
4095 4095 0
3680 0 3410
3680 0 3410
3680 0 3410
3680 0 3410
3680 0 3409
3680 0 3409
3680 0 3408
3680 0 3408
3680 0 3406
3680 0 3405
3680 0 3403
3680 0 3401
3680 0 3398
3680 0 3393
3680 0 3387
3680 0 3379
3680 0 3367
3680 0 3352
3680 0 3330
3680 0 3300
3680 0 3255
3680 0 3188
3680 0 3080
3680 0 2876
3680 0 2237
3680 0 0
3680 0 0
3680 3005 0
3812 3528 0
3944 3822 0
4076 4047 0
4095 4095 0
3812 0 3542
3812 0 3542
3812 0 3542
3812 0 3542
